X:1
T:Title
%%score { 1 | ( 2 3 ) }
L:1/8
M:9/8
K:F
V:1 treble nm="Grand Piano"
V:2 bass 
V:3 bass 
V:1
 z3 z3[Q:1/4=87] AcA | [EG]3 F3 FAF | E3 D3 D[CE][DF] | C3 A3 AGF |[M:3/4] [EG]6 |[M:3/8] AcA | %6
[M:9/8] [EG]3 F3 FAF | E3 D3 [Fd][Fd][Fd] | [Fc]3 [FA]2 [FA] [DFB][CFA][B,EG] |[M:3/4] [A,F]6 | %10
[M:3/8] [EG][EG][FA] |[M:9/8] [GB]3 [EG]3 AAB | c3 A3 [Fd][Fd][Fd] | c3 A2 A GA=B | %14
[M:3/4] [Ec]3 B3 |[M:3/8] AcA |[M:9/8] [EG]3 F3 FAF | E3 D3 [Fd][Fd][Fd] | %18
 [Fc]3 [FA]2 [FA] [DFB][CFA][B,EG] |[M:7/4] [A,F]6 z2 z2 z4 |] %20
V:2
 z3 z3 [F,CF][F,A,F][F,CF] | [C,B,]3 [F,A,]3 [F,A,][F,CF][F,A,C] | %2
 [B,,F,C]3 [B,,F,B,]3 [B,,F,B,][B,,F,][B,,B,] | [F,A,]3 [F,C]3 [G,=B,D][G,B,D][G,B,D] | %4
[M:3/4] [C,C]6 |[M:3/8] [F,CF][F,A,F][F,CF] |[M:9/8] [C,B,]3 [F,A,]3 [F,A,][F,CF][F,A,C] | %7
 [B,,F,C]3 [B,,F,]3 [B,,B,][B,,B,][B,,B,] | [C,A,]3 [C,C]2 [C,C] C,C,C, |[M:3/4] F,6 | %10
[M:3/8] [C,C][C,C][C,C] |[M:9/8] [C,C]3 [C,C]3 [F,CF][F,CF][F,G,F] | %12
 [F,A,F]3 [F,CF]3 [B,,B,][B,,B,][B,,B,] | [F,A,F]3 [F,CF]2 [F,CF] [G,CE][G,=B,F][G,DF] | %14
[M:3/4][K:bass] z2 z G3 |[M:3/8] [F,CF][F,A,F][F,CF] |[M:9/8] [C,B,]3 [F,A,]3 [F,A,][F,CF][F,A,C] | %17
 [B,,F,C]3 [B,,F,]3 [B,,B,][B,,B,][B,,B,] | [C,A,]3 [C,C]2 [C,C] C,C,C, |[M:7/4] F,6 z2 z2 z4 |] %20
V:3
 x9 | x9 | x9 | x9 |[M:3/4] x6 |[M:3/8] x3 |[M:9/8] x9 | x9 | x9 |[M:3/4] x6 |[M:3/8] x3 | %11
[M:9/8] x9 | x9 | x9 |[M:3/4][K:bass] [C,C]6 |[M:3/8] x3 |[M:9/8] x9 | x9 | x9 |[M:7/4] x14 |] %20

